images/indikatorenset/5862.svg

<?xml version="1.0" standalone="no"?><!DOCTYPE svg PUBLIC "-//W3C//DTD SVG 1.1//EN" "http://www.w3.org/Graphics/SVG/1.1/DTD/svg11.dtd"><svg xmlns:xlink="http://www.w3.org/1999/xlink" version="1.1" class="highcharts-root" style="font-family:arial;font-size:12px;" xmlns="http://www.w3.org/2000/svg" width="320" height="208"><desc>Created with Highstock 5.0.14</desc><defs><clipPath id="highcharts-0uvx0oh-6"><rect x="0" y="0" width="288" height="123" fill="none"></rect></clipPath><clipPath id="highcharts-0uvx0oh-7"><rect x="0" y="0" width="288" height="123" fill="none"></rect></clipPath></defs><rect fill="#fbfbfb" class="highcharts-background" x="0" y="0" width="320" height="208" rx="0" ry="0"></rect><rect fill="none" class="highcharts-plot-background" x="29" y="56" width="288" height="123"></rect><g class="highcharts-pane-group"></g><g class="highcharts-grid highcharts-xaxis-grid "><path fill="none" class="highcharts-grid-line" d="M 75.5 56 L 75.5 179" opacity="1"></path><path fill="none" class="highcharts-grid-line" d="M 150.5 56 L 150.5 179" opacity="1"></path><path fill="none" class="highcharts-grid-line" d="M 224.5 56 L 224.5 179" opacity="1"></path><path fill="none" class="highcharts-grid-line" d="M 298.5 56 L 298.5 179" opacity="1"></path></g><g class="highcharts-grid highcharts-yaxis-grid "><path fill="none" stroke="#B9CFD7" stroke-width="0.5" class="highcharts-grid-line" d="M 29 179.25 L 317 179.25" opacity="1"></path><path fill="none" stroke="#B9CFD7" stroke-width="0.5" class="highcharts-grid-line" d="M 29 138.25 L 317 138.25" opacity="1"></path><path fill="none" stroke="#B9CFD7" stroke-width="0.5" class="highcharts-grid-line" d="M 29 97.25 L 317 97.25" opacity="1"></path><path fill="none" stroke="#B9CFD7" stroke-width="0.5" class="highcharts-grid-line" d="M 29 56.25 L 317 56.25" opacity="1"></path></g><rect fill="none" class="highcharts-plot-border" x="29" y="56" width="288" height="123"></rect><g class="highcharts-axis highcharts-xaxis "><path fill="none" class="highcharts-axis-line" stroke="#B9CFD7" stroke-width="0.5" d="M 29 179.25 L 317 179.25"></path></g><g class="highcharts-axis highcharts-yaxis "><path fill="none" class="highcharts-axis-line" d="M 29 56 L 29 179"></path></g><g class="highcharts-series-group"><g class="highcharts-series highcharts-series-0 highcharts-line-series highcharts-color-undefined " transform="translate(29,56) scale(1 1)" clip-path="url(#highcharts-0uvx0oh-7)"><path fill="none" d="M 2.8235294117655 15.248404238500001 L 17.684210526317 16.43101867300001 L 32.544891640867 17.52931914950001 L 47.405572755418 18.3946467815 L 62.266253869969 19.017017044 L 77.126934984521 18.70860538850002 L 91.987616099072 18.598775347 L 106.84829721362 18.452335278000007 L 121.70897832817 18.761301622500014 L 136.56965944272 18.83230286 L 151.43034055728 18.71692584650002 L 166.29102167183 17.853817011500013 L 181.15170278638 17.155453228500008 L 196.01238390093 17.164328375500006 L 210.87306501548 16.45598004700001 L 225.73374613003 15.688833823500005 L 240.59442724458 14.579439423500006 L 255.45510835913 14.018085853000002 L 270.31578947368 13.61149278900001 L 285.17647058823 13.055686190500012" class="highcharts-graph" stroke="#8b2223" stroke-width="2" stroke-linejoin="round" stroke-linecap="round"></path></g><g class="highcharts-markers highcharts-series-0 highcharts-line-series highcharts-color-undefined " transform="translate(29,56) scale(1 1)" clip-path="none"><path fill="#8b2223" d="M 6 15 A 4 4 0 1 1 5.999998000000167 14.996000000666664 Z" class="highcharts-point"></path><path fill="#8b2223" d="M 21 16 A 4 4 0 1 1 20.99999800000017 15.996000000666664 Z" class="highcharts-point"></path><path fill="#8b2223" d="M 36 18 A 4 4 0 1 1 35.99999800000017 17.996000000666665 Z" class="highcharts-point"></path><path fill="#8b2223" d="M 51 18 A 4 4 0 1 1 50.99999800000017 17.996000000666665 Z" class="highcharts-point"></path><path fill="#8b2223" d="M 66 19 A 4 4 0 1 1 65.99999800000016 18.996000000666665 Z" class="highcharts-point"></path><path fill="#8b2223" d="M 81 19 A 4 4 0 1 1 80.99999800000016 18.996000000666665 Z" class="highcharts-point"></path><path fill="#8b2223" d="M 95 19 A 4 4 0 1 1 94.99999800000016 18.996000000666665 Z" class="highcharts-point"></path><path fill="#8b2223" d="M 110 18 A 4 4 0 1 1 109.99999800000016 17.996000000666665 Z" class="highcharts-point"></path><path fill="#8b2223" d="M 125 19 A 4 4 0 1 1 124.99999800000016 18.996000000666665 Z" class="highcharts-point"></path><path fill="#8b2223" d="M 140 19 A 4 4 0 1 1 139.99999800000018 18.996000000666665 Z" class="highcharts-point"></path><path fill="#8b2223" d="M 155 19 A 4 4 0 1 1 154.99999800000018 18.996000000666665 Z" class="highcharts-point"></path><path fill="#8b2223" d="M 170 18 A 4 4 0 1 1 169.99999800000018 17.996000000666665 Z" class="highcharts-point"></path><path fill="#8b2223" d="M 185 17 A 4 4 0 1 1 184.99999800000018 16.996000000666665 Z" class="highcharts-point"></path><path fill="#8b2223" d="M 200 17 A 4 4 0 1 1 199.99999800000018 16.996000000666665 Z" class="highcharts-point"></path><path fill="#8b2223" d="M 214 16 A 4 4 0 1 1 213.99999800000018 15.996000000666664 Z" class="highcharts-point"></path><path fill="#8b2223" d="M 229 16 A 4 4 0 1 1 228.99999800000018 15.996000000666664 Z" class="highcharts-point"></path><path fill="#8b2223" d="M 244 15 A 4 4 0 1 1 243.99999800000018 14.996000000666664 Z" class="highcharts-point"></path><path fill="#8b2223" d="M 259 14 A 4 4 0 1 1 258.9999980000002 13.996000000666664 Z" class="highcharts-point"></path><path fill="#8b2223" d="M 274 14 A 4 4 0 1 1 273.9999980000002 13.996000000666664 Z" class="highcharts-point"></path><path fill="#8b2223" d="M 289 13 A 4 4 0 1 1 288.9999980000002 12.996000000666664 Z" class="highcharts-point"></path></g></g><text x="3" text-anchor="start" class="highcharts-title" style="color:#000000;font-size:10px;font-weight:bold;fill:#000000;" y="22"><tspan>Bevölkerungsdichte</tspan></text><text x="3" text-anchor="start" class="highcharts-subtitle" style="color:#000000;font-size:10px;font-weight:normal;font-family:arial;fill:#000000;" y="40"><tspan>Anzahl Einwohner pro Hektar</tspan></text><g class="highcharts-data-labels highcharts-series-0 highcharts-line-series highcharts-color-undefined " visibility="visible" transform="translate(29,56) scale(1 1)"><g class="highcharts-label highcharts-data-label highcharts-data-label-color-undefined " transform="translate(-5,15)"><text x="5" style="font-size:10px;font-weight:normal;color:#000000;fill:#000000;" y="15"><tspan x="5" y="15" class="highcharts-text-outline" fill="#FFFFFF" stroke="#FFFFFF" stroke-width="2px" stroke-linejoin="round" style="">1997:</tspan><tspan x="5" dy="13" class="highcharts-text-outline" fill="#FFFFFF" stroke="#FFFFFF" stroke-width="2px" stroke-linejoin="round" style="">52,6</tspan><tspan x="5" y="15">1997:</tspan><tspan x="5" dy="13">52,6</tspan></text></g><g class="highcharts-label highcharts-data-label highcharts-data-label-color-undefined " transform="translate(13,6)"><text x="5" style="font-size:10px;font-weight:normal;color:#000000;fill:#000000;" y="15"></text></g><g class="highcharts-label highcharts-data-label highcharts-data-label-color-undefined " transform="translate(28,8)"><text x="5" style="font-size:10px;font-weight:normal;color:#000000;fill:#000000;" y="15"></text></g><g class="highcharts-label highcharts-data-label highcharts-data-label-color-undefined " transform="translate(42,8)"><text x="5" style="font-size:10px;font-weight:normal;color:#000000;fill:#000000;" y="15"></text></g><g class="highcharts-label highcharts-data-label highcharts-data-label-color-undefined " transform="translate(57,9)"><text x="5" style="font-size:10px;font-weight:normal;color:#000000;fill:#000000;" y="15"></text></g><g class="highcharts-label highcharts-data-label highcharts-data-label-color-undefined " transform="translate(72,9)"><text x="5" style="font-size:10px;font-weight:normal;color:#000000;fill:#000000;" y="15"></text></g><g class="highcharts-label highcharts-data-label highcharts-data-label-color-undefined " transform="translate(87,9)"><text x="5" style="font-size:10px;font-weight:normal;color:#000000;fill:#000000;" y="15"></text></g><g class="highcharts-label highcharts-data-label highcharts-data-label-color-undefined " transform="translate(102,8)"><text x="5" style="font-size:10px;font-weight:normal;color:#000000;fill:#000000;" y="15"></text></g><g class="highcharts-label highcharts-data-label highcharts-data-label-color-undefined " transform="translate(117,9)"><text x="5" style="font-size:10px;font-weight:normal;color:#000000;fill:#000000;" y="15"></text></g><g class="highcharts-label highcharts-data-label highcharts-data-label-color-undefined " transform="translate(132,9)"><text x="5" style="font-size:10px;font-weight:normal;color:#000000;fill:#000000;" y="15"></text></g><g class="highcharts-label highcharts-data-label highcharts-data-label-color-undefined " transform="translate(146,9)"><text x="5" style="font-size:10px;font-weight:normal;color:#000000;fill:#000000;" y="15"></text></g><g class="highcharts-label highcharts-data-label highcharts-data-label-color-undefined " transform="translate(161,8)"><text x="5" style="font-size:10px;font-weight:normal;color:#000000;fill:#000000;" y="15"></text></g><g class="highcharts-label highcharts-data-label highcharts-data-label-color-undefined " transform="translate(176,7)"><text x="5" style="font-size:10px;font-weight:normal;color:#000000;fill:#000000;" y="15"></text></g><g class="highcharts-label highcharts-data-label highcharts-data-label-color-undefined " transform="translate(191,7)"><text x="5" style="font-size:10px;font-weight:normal;color:#000000;fill:#000000;" y="15"></text></g><g class="highcharts-label highcharts-data-label highcharts-data-label-color-undefined " transform="translate(206,6)"><text x="5" style="font-size:10px;font-weight:normal;color:#000000;fill:#000000;" y="15"></text></g><g class="highcharts-label highcharts-data-label highcharts-data-label-color-undefined " transform="translate(221,6)"><text x="5" style="font-size:10px;font-weight:normal;color:#000000;fill:#000000;" y="15"></text></g><g class="highcharts-label highcharts-data-label highcharts-data-label-color-undefined " transform="translate(236,5)"><text x="5" style="font-size:10px;font-weight:normal;color:#000000;fill:#000000;" y="15"></text></g><g class="highcharts-label highcharts-data-label highcharts-data-label-color-undefined " transform="translate(250,4)"><text x="5" style="font-size:10px;font-weight:normal;color:#000000;fill:#000000;" y="15"></text></g><g class="highcharts-label highcharts-data-label highcharts-data-label-color-undefined " transform="translate(265,4)"><text x="5" style="font-size:10px;font-weight:normal;color:#000000;fill:#000000;" y="15"></text></g><g class="highcharts-label highcharts-data-label highcharts-data-label-color-undefined " transform="translate(258,13)"><text x="5" style="font-size:10px;font-weight:normal;color:#000000;fill:#000000;" y="15"><tspan x="5" y="15" class="highcharts-text-outline" fill="#FFFFFF" stroke="#FFFFFF" stroke-width="2px" stroke-linejoin="round" style="">2016:</tspan><tspan x="5" dy="13" class="highcharts-text-outline" fill="#FFFFFF" stroke="#FFFFFF" stroke-width="2px" stroke-linejoin="round" style="">53,6</tspan><tspan x="5" y="15">2016:</tspan><tspan x="5" dy="13">53,6</tspan></text></g></g><g class="highcharts-axis-labels highcharts-xaxis-labels "><text x="76.40557275541849" style="color:#000000;cursor:default;font-size:10;fill:#000000;" text-anchor="middle" transform="translate(0,0)" y="199" opacity="1"><tspan>2000</tspan></text><text x="150.7089783281735" style="color:#000000;cursor:default;font-size:10;fill:#000000;" text-anchor="middle" transform="translate(0,0)" y="199" opacity="1"><tspan>2005</tspan></text><text x="225.01238390092848" style="color:#000000;cursor:default;font-size:10;fill:#000000;" text-anchor="middle" transform="translate(0,0)" y="199" opacity="1"><tspan>2010</tspan></text><text x="299.3157894736835" style="color:#000000;cursor:default;font-size:10;fill:#000000;" text-anchor="middle" transform="translate(0,0)" y="199" opacity="1"><tspan>2015</tspan></text></g><g class="highcharts-axis-labels highcharts-yaxis-labels "><text x="14" style="color:#000000;cursor:default;font-size:10;fill:#000000;" text-anchor="end" transform="translate(0,0)" y="185" opacity="1"><tspan>0</tspan></text><text x="14" style="color:#000000;cursor:default;font-size:10;fill:#000000;" text-anchor="end" transform="translate(0,0)" y="144" opacity="1"><tspan>20</tspan></text><text x="14" style="color:#000000;cursor:default;font-size:10;fill:#000000;" text-anchor="end" transform="translate(0,0)" y="103" opacity="1"><tspan>40</tspan></text><text x="14" style="color:#000000;cursor:default;font-size:10;fill:#000000;" text-anchor="end" transform="translate(0,0)" y="62" opacity="1"><tspan>60</tspan></text></g><text x="10" class="highcharts-credits" text-anchor="start" style="cursor:default;color:#000000;font-size:10px;fill:#000000;" y="193"><tspan>Quelle: Statistisches Amt Basel-Stadt, Bevölkerungsstatistik</tspan></text></svg>

<svg class="highcharts-root" xmlns="http://www.w3.org/2000/svg" width="320" height="208" font-family="arial" font-size="12">
    <defs>
        <clipPath id="a">
            <path fill="none" d="M0 0h288v123H0z"/>
        </clipPath>
    </defs>
    <rect fill="#fbfbfb" class="highcharts-background" width="320" height="208" rx="0" ry="0"/>
    <path fill="none" class="highcharts-plot-background" d="M29 56h288v123H29z"/>
    <g class="highcharts-grid highcharts-xaxis-grid">
        <path fill="none" class="highcharts-grid-line" d="M75.5 56v123m75-123v123m74-123v123m74-123v123"/>
    </g>
    <g class="highcharts-grid highcharts-yaxis-grid">
        <path fill="none" stroke="#B9CFD7" stroke-width=".5" class="highcharts-grid-line" d="M29 179.25h288m-288-41h288m-288-41h288m-288-41h288"/>
    </g>
    <path fill="none" class="highcharts-plot-border" d="M29 56h288v123H29z"/>
    <g class="highcharts-axis highcharts-xaxis">
        <path fill="none" class="highcharts-axis-line" stroke="#B9CFD7" stroke-width=".5" d="M29 179.25h288"/>
    </g>
    <g class="highcharts-axis highcharts-yaxis">
        <path fill="none" class="highcharts-axis-line" d="M29 56v123"/>
    </g>
    <g class="highcharts-series-group">
        <g class="highcharts-series highcharts-series-0 highcharts-line-series highcharts-color-undefined" transform="translate(29 56)" clip-path="url(#a)">
            <path fill="none" d="M2.824 15.248l14.86 1.183 14.86 1.098 14.862.866 14.86.622 14.86-.308 14.862-.11 14.86-.147 14.861.31 14.86.07 14.861-.115 14.861-.863 14.86-.699 14.861.01 14.861-.709 14.86-.767 14.861-1.11 14.861-.56 14.86-.408 14.861-.555" class="highcharts-graph" stroke="#8b2223" stroke-width="2" stroke-linejoin="round" stroke-linecap="round"/>
        </g>
        <g class="highcharts-markers highcharts-series-0 highcharts-line-series highcharts-color-undefined">
            <path fill="#8b2223" d="M35 71a4 4 0 1 1 0-.004zm15 1a4 4 0 1 1 0-.004zm15 2a4 4 0 1 1 0-.004zm15 0a4 4 0 1 1 0-.004zm15 1a4 4 0 1 1 0-.004zm15 0a4 4 0 1 1 0-.004zm14 0a4 4 0 1 1 0-.004zm15-1a4 4 0 1 1 0-.004zm15 1a4 4 0 1 1 0-.004zm15 0a4 4 0 1 1 0-.004zm15 0a4 4 0 1 1 0-.004zm15-1a4 4 0 1 1 0-.004zm15-1a4 4 0 1 1 0-.004zm15 0a4 4 0 1 1 0-.004zm14-1a4 4 0 1 1 0-.004zm15 0a4 4 0 1 1 0-.004zm15-1a4 4 0 1 1 0-.004zm15-1a4 4 0 1 1 0-.004zm15 0a4 4 0 1 1 0-.004zm15-1a4 4 0 1 1 0-.004z" class="highcharts-point"/>
        </g>
    </g>
    <text x="3" class="highcharts-title" y="22" color="#000" font-size="10" font-weight="700">
        <tspan>Bevölkerungsdichte</tspan>
    </text>
    <text x="3" class="highcharts-subtitle" y="40" color="#000" font-size="10" font-weight="400">
        <tspan>Anzahl Einwohner pro Hektar</tspan>
    </text>
    <g class="highcharts-data-labels highcharts-series-0 highcharts-line-series highcharts-color-undefined">
        <text x="5" y="15" font-size="10" font-weight="400" color="#000" transform="translate(24 71)" class="highcharts-label highcharts-data-label highcharts-data-label-color-undefined">
            <tspan x="5" y="15" class="highcharts-text-outline" fill="#FFF" stroke="#FFF" stroke-width="2" stroke-linejoin="round">1997:</tspan><tspan x="5" dy="13" class="highcharts-text-outline" fill="#FFF" stroke="#FFF" stroke-width="2" stroke-linejoin="round">52,6</tspan><tspan x="5" y="15">1997:</tspan><tspan x="5" dy="13">52,6</tspan>
        </text>
        <text x="5" y="15" font-size="10" font-weight="400" color="#000" transform="translate(287 69)" class="highcharts-label highcharts-data-label highcharts-data-label-color-undefined">
            <tspan x="5" y="15" class="highcharts-text-outline" fill="#FFF" stroke="#FFF" stroke-width="2" stroke-linejoin="round">2016:</tspan><tspan x="5" dy="13" class="highcharts-text-outline" fill="#FFF" stroke="#FFF" stroke-width="2" stroke-linejoin="round">53,6</tspan><tspan x="5" y="15">2016:</tspan><tspan x="5" dy="13">53,6</tspan>
        </text>
    </g>
    <g class="highcharts-axis-labels highcharts-xaxis-labels" text-anchor="middle" color="#000" cursor="default" font-size="10">
        <text x="76.406" y="199">
            <tspan>2000</tspan>
        </text>
        <text x="150.709" y="199">
            <tspan>2005</tspan>
        </text>
        <text x="225.012" y="199">
            <tspan>2010</tspan>
        </text>
        <text x="299.316" y="199">
            <tspan>2015</tspan>
        </text>
    </g>
    <g class="highcharts-axis-labels highcharts-yaxis-labels" text-anchor="end" color="#000" cursor="default" font-size="10">
        <text x="14" y="185">
            <tspan>0</tspan>
        </text>
        <text x="14" y="144">
            <tspan>20</tspan>
        </text>
        <text x="14" y="103">
            <tspan>40</tspan>
        </text>
        <text x="14" y="62">
            <tspan>60</tspan>
        </text>
    </g>
    <text x="10" class="highcharts-credits" y="193" cursor="default" color="#000" font-size="10">
        <tspan>Quelle: Statistisches Amt Basel-Stadt, Bevölkerungsstatistik</tspan>
    </text>
</svg>
